svg/fluentui-system-icons/ic_fluent_window_header_horizontal_off_20_regular.svg

<svg width="20" height="20" viewBox="0 0 20 20" fill="none" xmlns="http://www.w3.org/2000/svg">
<path d="M2.85355 2.14645C2.65829 1.95118 2.34171 1.95118 2.14645 2.14645C1.95118 2.34171 1.95118 2.65829 2.14645 2.85355L3.4142 4.1213C3.15244 4.51652 3 4.99046 3 5.5V14.5C3 15.8807 4.11929 17 5.5 17H14.5C15.0095 17 15.4835 16.8476 15.8787 16.5858L17.1464 17.8536C17.3417 18.0488 17.6583 18.0488 17.8536 17.8536C18.0488 17.6583 18.0488 17.3417 17.8536 17.1464L2.85355 2.14645ZM15.1467 15.8538C14.9509 15.9475 14.7316 16 14.5 16H5.5C4.67157 16 4 15.3284 4 14.5V7H6.29289L15.1467 15.8538ZM16 7V13.8787L16.9752 14.8538C16.9915 14.7382 17 14.6201 17 14.5V5.5C17 4.11929 15.8807 3 14.5 3H5.5C5.37989 3 5.26177 3.00847 5.14618 3.02484L9.12134 7H16Z" fill="#212121"/>
</svg>

<svg xmlns="http://www.w3.org/2000/svg" width="20" height="20"><path d="M2.854 2.146a.5.5 0 1 0-.708.708L3.414 4.12A2.496 2.496 0 0 0 3 5.5v9A2.5 2.5 0 0 0 5.5 17h9c.51 0 .983-.152 1.379-.414l1.267 1.268a.5.5 0 0 0 .708-.708l-15-15Zm12.293 13.708A1.494 1.494 0 0 1 14.5 16h-9A1.5 1.5 0 0 1 4 14.5V7h2.293l8.854 8.854ZM16 7v6.879l.975.975c.016-.116.025-.234.025-.354v-9A2.5 2.5 0 0 0 14.5 3h-9c-.12 0-.238.008-.354.025L9.121 7H16Z"/></svg>
